chess-client/components/Chess/_/images/blackKnight.svg

<svg viewBox="0 0 160 160" xmlns="http://www.w3.org/2000/svg"><path d="M98.74 25.95c5.26-4.33 10.44-8.75 15.85-12.89-.16 8.31-.07 16.63-.08 24.94 2.82.04 5.65-.13 8.48.07.99.96.35 2.65.6 3.89.2 17.33.57 34.66.76 51.99 1.55.01 3.1.04 4.65.08V110c-5.4.01-10.8-.01-16.19.01 3.42 7.33 6.86 14.67 10.33 21.99H137v16H41v-16c4.62-.01 9.25 0 13.87 0 3.45-7.33 6.9-14.66 10.32-21.99-5.39-.02-10.79 0-16.19-.01V94h12.16c4.54-5.55 8.98-11.18 13.53-16.71-11.57 1.53-23.12 3.29-34.68 4.92-2.01-7.91-4.04-15.82-5.99-23.75 15.11-10.7 30.06-21.64 45.21-32.26 6.47-.51 13.01.01 19.51-.25m1.31 4.05c-5.35-.01-10.7.03-16.05-.03-1.45.09-3.11-.3-4.32.74-13.71 9.81-27.41 19.63-41.12 29.45 1.46 5.86 2.95 11.71 4.44 17.57 13.74-1.95 27.47-3.97 41.22-5.91-5.94 7.41-11.94 14.77-17.89 22.17 18.01.02 36.03.01 54.04.01-.06-4-.12-8-.19-11.99-3.06 0-6.12-.02-9.18-.01v-4c3.04.01 6.08-.01 9.12-.01-.03-1.99-.06-3.99-.1-5.99-3 .01-6.01-.01-9.02 0v-4c2.99.01 5.98-.01 8.97 0l-.09-6c-2.96.01-5.92-.01-8.88 0v-4c2.94.02 5.87-.01 8.81-.01-.03-1.99-.06-3.98-.08-5.97-2.91-.01-5.82-.04-8.73-.02v-4c2.89.02 5.78-.02 8.67-.02-.04-1.87-.08-3.75-.11-5.62-3.02.01-6.04-.02-9.06-.01-.03-6.91.04-13.83-.03-20.75-3.59 2.66-6.93 5.61-10.42 8.4M53 98c-.01 2.67 0 5.33 0 8h72c0-2.67 0-5.33-.01-8H53m16.4 12.19c-3.14 7.37-6.77 14.52-10.09 21.81h59.38c-3.32-7.3-6.95-14.45-10.1-21.82-13.05-.29-26.14-.31-39.19.01M45.01 136c-.01 2.67-.02 5.33-.01 8h88v-8H45.01z"/><path d="M82.35 45.39c2.81-1.45 6.35 1.43 5.53 4.48-.5 2.66-3.99 4.04-6.14 2.38-2.51-1.56-2.12-5.76.61-6.86z"/><path d="M100.05 30c3.49-2.79 6.83-5.74 10.42-8.4.07 6.92 0 13.84.03 20.75 3.02-.01 6.04.02 9.06.01.03 1.87.07 3.75.11 5.62-2.89 0-5.78.04-8.67.02v4c2.91-.02 5.82.01 8.73.02.02 1.99.05 3.98.08 5.97-2.94 0-5.87.03-8.81.01v4c2.96-.01 5.92.01 8.88 0l.09 6c-2.99-.01-5.98.01-8.97 0v4c3.01-.01 6.02.01 9.02 0 .04 2 .07 4 .1 5.99-3.04 0-6.08.02-9.12.01v4c3.06-.01 6.12.01 9.18.01.07 3.99.13 7.99.19 11.99-18.01 0-36.03.01-54.04-.01 5.95-7.4 11.95-14.76 17.89-22.17-13.75 1.94-27.48 3.96-41.22 5.91-1.49-5.86-2.98-11.71-4.44-17.57 13.71-9.82 27.41-19.64 41.12-29.45 1.21-1.04 2.87-.65 4.32-.74 5.35.06 10.7.02 16.05.03m-17.7 15.39c-2.73 1.1-3.12 5.3-.61 6.86 2.15 1.66 5.64.28 6.14-2.38.82-3.05-2.72-5.93-5.53-4.48zM53 98h71.99c.01 2.67.01 5.33.01 8H53c0-2.67-.01-5.33 0-8zm16.4 12.19c13.05-.32 26.14-.3 39.19-.01 3.15 7.37 6.78 14.52 10.1 21.82H59.31c3.32-7.29 6.95-14.44 10.09-21.81zM45.01 136H133v8H45c-.01-2.67 0-5.33.01-8z" fill="#0078d7"/></svg>

<?xml version="1.0" encoding="UTF-8" ?>
<!DOCTYPE svg PUBLIC "-//W3C//DTD SVG 1.1//EN" "http://www.w3.org/Graphics/SVG/1.1/DTD/svg11.dtd">
<svg width="160pt" height="160pt" viewBox="0 0 160 160" version="1.1" xmlns="http://www.w3.org/2000/svg">
<g id="#000000ff">
<path fill="#000000" opacity="1.00" d=" M 98.74 25.95 C 104.00 21.62 109.18 17.20 114.59 13.06 C 114.43 21.37 114.52 29.69 114.51 38.00 C 117.33 38.04 120.16 37.87 122.99 38.07 C 123.98 39.03 123.34 40.72 123.59 41.96 C 123.79 59.29 124.16 76.62 124.35 93.95 C 125.90 93.96 127.45 93.99 129.00 94.03 C 129.00 99.35 129.00 104.67 129.00 110.00 C 123.60 110.01 118.20 109.99 112.81 110.01 C 116.23 117.34 119.67 124.68 123.14 132.00 C 127.76 132.00 132.38 132.00 137.00 132.00 C 137.00 137.33 137.00 142.66 137.00 148.00 C 105.00 148.00 73.00 148.00 41.00 148.00 C 41.00 142.67 41.00 137.33 41.00 132.00 C 45.62 131.99 50.25 132.00 54.87 132.00 C 58.32 124.67 61.77 117.34 65.19 110.01 C 59.80 109.99 54.40 110.01 49.00 110.00 C 49.00 104.67 49.00 99.33 49.00 94.00 C 53.06 94.00 57.11 94.00 61.16 94.00 C 65.70 88.45 70.14 82.82 74.69 77.29 C 63.12 78.82 51.57 80.58 40.01 82.21 C 38.00 74.30 35.97 66.39 34.02 58.46 C 49.13 47.76 64.08 36.82 79.23 26.20 C 85.70 25.69 92.24 26.21 98.74 25.95 M 100.05 30.00 C 94.70 29.99 89.35 30.03 84.00 29.97 C 82.55 30.06 80.89 29.67 79.68 30.71 C 65.97 40.52 52.27 50.34 38.56 60.16 C 40.02 66.02 41.51 71.87 43.00 77.73 C 56.74 75.78 70.47 73.76 84.22 71.82 C 78.28 79.23 72.28 86.59 66.33 93.99 C 84.34 94.01 102.36 94.00 120.37 94.00 C 120.31 90.00 120.25 86.00 120.18 82.01 C 117.12 82.01 114.06 81.99 111.00 82.00 C 111.00 80.67 111.00 79.33 111.00 78.00 C 114.04 78.01 117.08 77.99 120.12 77.99 C 120.09 76.00 120.06 74.00 120.02 72.00 C 117.02 72.01 114.01 71.99 111.00 72.00 C 111.00 70.67 111.00 69.33 111.00 68.00 C 113.99 68.01 116.98 67.99 119.97 68.00 C 119.94 66.00 119.91 64.00 119.88 62.00 C 116.92 62.01 113.96 61.99 111.00 62.00 C 111.00 60.67 111.00 59.33 111.00 58.00 C 113.94 58.02 116.87 57.99 119.81 57.99 C 119.78 56.00 119.75 54.01 119.73 52.02 C 116.82 52.01 113.91 51.98 111.00 52.00 C 111.00 50.67 111.00 49.33 111.00 48.00 C 113.89 48.02 116.78 47.98 119.67 47.98 C 119.63 46.11 119.59 44.23 119.56 42.36 C 116.54 42.37 113.52 42.34 110.50 42.35 C 110.47 35.44 110.54 28.52 110.47 21.60 C 106.88 24.26 103.54 27.21 100.05 30.00 M 53.00 98.00 C 52.99 100.67 53.00 103.33 53.00 106.00 C 77.00 106.00 101.00 106.00 125.00 106.00 C 125.00 103.33 125.00 100.67 124.99 98.00 C 101.00 98.00 77.00 98.00 53.00 98.00 M 69.40 110.19 C 66.26 117.56 62.63 124.71 59.31 132.00 C 79.10 132.00 98.90 132.00 118.69 132.00 C 115.37 124.70 111.74 117.55 108.59 110.18 C 95.54 109.89 82.45 109.87 69.40 110.19 M 45.01 136.00 C 45.00 138.67 44.99 141.33 45.00 144.00 C 74.33 144.00 103.66 144.00 133.00 144.00 C 133.00 141.33 133.00 138.67 133.00 136.00 C 103.67 136.00 74.34 136.00 45.01 136.00 Z" />
<path fill="#000000" opacity="1.00" d=" M 82.35 45.39 C 85.16 43.94 88.70 46.82 87.88 49.87 C 87.38 52.53 83.89 53.91 81.74 52.25 C 79.23 50.69 79.62 46.49 82.35 45.39 Z" />
</g>
<g id="#0078d7ff">
<path fill="#0078d7" opacity="1.00" d=" M 100.05 30.00 C 103.54 27.21 106.88 24.26 110.47 21.60 C 110.54 28.52 110.47 35.44 110.50 42.35 C 113.52 42.34 116.54 42.37 119.56 42.36 C 119.59 44.23 119.63 46.11 119.67 47.98 C 116.78 47.98 113.89 48.02 111.00 48.00 C 111.00 49.33 111.00 50.67 111.00 52.00 C 113.91 51.98 116.82 52.01 119.73 52.02 C 119.75 54.01 119.78 56.00 119.81 57.99 C 116.87 57.99 113.94 58.02 111.00 58.00 C 111.00 59.33 111.00 60.67 111.00 62.00 C 113.96 61.99 116.92 62.01 119.88 62.00 C 119.91 64.00 119.94 66.00 119.97 68.00 C 116.98 67.99 113.99 68.01 111.00 68.00 C 111.00 69.33 111.00 70.67 111.00 72.00 C 114.01 71.99 117.02 72.01 120.02 72.00 C 120.06 74.00 120.09 76.00 120.12 77.99 C 117.08 77.99 114.04 78.01 111.00 78.00 C 111.00 79.33 111.00 80.67 111.00 82.00 C 114.06 81.99 117.12 82.01 120.18 82.01 C 120.25 86.00 120.31 90.00 120.37 94.00 C 102.36 94.00 84.34 94.01 66.33 93.99 C 72.28 86.59 78.28 79.23 84.22 71.82 C 70.47 73.76 56.74 75.78 43.00 77.73 C 41.51 71.87 40.02 66.02 38.56 60.16 C 52.27 50.34 65.97 40.52 79.68 30.71 C 80.89 29.67 82.55 30.06 84.00 29.97 C 89.35 30.03 94.70 29.99 100.05 30.00 M 82.35 45.39 C 79.62 46.49 79.23 50.69 81.74 52.25 C 83.89 53.91 87.38 52.53 87.88 49.87 C 88.70 46.82 85.16 43.94 82.35 45.39 Z" />
<path fill="#0078d7" opacity="1.00" d=" M 53.00 98.00 C 77.00 98.00 101.00 98.00 124.99 98.00 C 125.00 100.67 125.00 103.33 125.00 106.00 C 101.00 106.00 77.00 106.00 53.00 106.00 C 53.00 103.33 52.99 100.67 53.00 98.00 Z" />
<path fill="#0078d7" opacity="1.00" d=" M 69.40 110.19 C 82.45 109.87 95.54 109.89 108.59 110.18 C 111.74 117.55 115.37 124.70 118.69 132.00 C 98.90 132.00 79.10 132.00 59.31 132.00 C 62.63 124.71 66.26 117.56 69.40 110.19 Z" />
<path fill="#0078d7" opacity="1.00" d=" M 45.01 136.00 C 74.34 136.00 103.67 136.00 133.00 136.00 C 133.00 138.67 133.00 141.33 133.00 144.00 C 103.66 144.00 74.33 144.00 45.00 144.00 C 44.99 141.33 45.00 138.67 45.01 136.00 Z" />
</g>
</svg>
